;FLAVOR:Marlin
;TIME:449
;Filament used: 0.252595m
;Layer height: 0.2
;MINX:17.666
;MINY:17.666
;MINZ:0.2
;MAXX:217.334
;MAXY:217.334
;MAXZ:0.2
;ARCWELDERPROCESSED
; Postprocessed by [ArcWelder](https://github.com/FormerLurker/ArcWelderLib)
; Copyright(C) 2020 - Brad Hochgesang
; resolution=0.05mm
; path_tolerance=5%
; max_radius=1000000.00mm
; g90_influences_extruder=True
; default_xyz_precision=3
; default_e_precision=5

M140 S40
M105
M190 S40
M140 S55
M104 S215
M105
M190 S55
M109 S215

; Play a tune
M300 S440 P200
M300 S523 P200
M300 S659 P200

;Generated with Cura_SteamEngine 4.10.0
M82 ;absolute extrusion mode
; Ender 3 Custom Start G-code
G92 E0 ; Reset Extruder
G28 ; Home all axes
G1 Z2.0 F3000 ; Move Z Axis up little to prevent scratching of Heat Bed
G1 X0.1 Y20 Z0.3 F5000.0 ; Move to start position
G1 X0.1 Y200.0 Z0.3 F1500.0 E15 ; Draw the first line
G1 X0.4 Y200.0 Z0.3 F5000.0 ; Move to side a little
G1 X0.4 Y20 Z0.3 F1500.0 E30 ; Draw the second line
G92 E0 ; Reset Extruder
G1 Z2.0 F3000 ; Move Z Axis up little to prevent scratching of Heat Bed
G1 X5 Y20 Z0.3 F5000.0 ; Move over to prevent blob squish
G92 E0
G92 E0
;LAYER_COUNT:1
;LAYER:0
M107
M205 X6 Y6
;MESH:Custom Bed Level Test.3mf(2)
G0 F6000 X56.95 Y56.95 Z0.2
;TYPE:WALL-INNER
G1 F1200 X38.05 Y56.95 E0.62862
G1 X38.05 Y38.05 E1.25723
G1 X56.95 Y38.05 E1.88585
G1 X56.95 Y56.95 E2.51447
G0 F6000 X57.35 Y57.35
;TYPE:WALL-OUTER
G1 F1200 X37.65 Y57.35 E3.16969
G1 X37.65 Y37.65 E3.82492
G1 X57.35 Y37.65 E4.48014
G1 X57.35 Y57.35 E5.13536
G0 F6000 X57.08 Y57.08
G0 X56.84 Y38.687
G0 X56.789 Y38.687
;TYPE:SKIN
G1 F1200 X56.311 Y38.209 E5.15785
G0 F6000 X55.746 Y38.209
G1 F1200 X56.789 Y39.253 E5.20693
G0 F6000 X56.789 Y39.819
G1 F1200 X55.18 Y38.209 E5.28264
G0 F6000 X54.614 Y38.209
G1 F1200 X56.789 Y40.384 E5.38494
G0 F6000 X56.789 Y40.95
G1 F1200 X54.049 Y38.209 E5.51385
G0 F6000 X53.483 Y38.209
G1 F1200 X56.789 Y41.516 E5.66938
G0 F6000 X56.789 Y42.082
G1 F1200 X52.917 Y38.209 E5.85153
G0 F6000 X52.352 Y38.209
G1 F1200 X56.789 Y42.647 E6.06025
G0 F6000 X56.789 Y43.213
G1 F1200 X51.786 Y38.209 E6.2956
G0 F6000 X51.22 Y38.209
G1 F1200 X56.789 Y43.779 E6.55757
G0 F6000 X56.789 Y44.344
G1 F1200 X50.655 Y38.209 E6.84612
G0 F6000 X50.089 Y38.209
G1 F1200 X56.789 Y44.91 E7.16129
G0 F6000 X56.789 Y45.476
G1 F1200 X49.523 Y38.209 E7.50309
G0 F6000 X48.957 Y38.209
G1 F1200 X56.789 Y46.041 E7.87148
G0 F6000 X56.789 Y46.607
G1 F1200 X48.392 Y38.209 E8.26647
G0 F6000 X47.826 Y38.209
G1 F1200 X56.789 Y47.173 E8.68809
G0 F6000 X56.789 Y47.738
G1 F1200 X47.26 Y38.209 E9.1363
G0 F6000 X46.695 Y38.209
G1 F1200 X56.789 Y48.304 E9.61112
G0 F6000 X56.789 Y48.87
G1 F1200 X46.129 Y38.209 E10.11255
G0 F6000 X45.563 Y38.209
G1 F1200 X56.789 Y49.435 E10.64059
G0 F6000 X56.789 Y50.001
G1 F1200 X44.998 Y38.209 E11.19523
G0 F6000 X44.432 Y38.209
G1 F1200 X56.789 Y50.567 E11.77649
G0 F6000 X56.789 Y51.133
G1 F1200 X43.866 Y38.209 E12.38437
G0 F6000 X43.301 Y38.209
G1 F1200 X56.789 Y51.698 E13.01883
G0 F6000 X56.789 Y52.264
G1 F1200 X42.735 Y38.209 E13.67991
G0 F6000 X42.169 Y38.209
G1 F1200 X56.789 Y52.83 E14.36761
G0 F6000 X56.789 Y53.395
G1 F1200 X41.604 Y38.209 E15.08189
G0 F6000 X41.038 Y38.209
G1 F1200 X56.789 Y53.961 E15.82279
G0 F6000 X56.789 Y54.527
G1 F1200 X40.472 Y38.209 E16.59032
G0 F6000 X39.906 Y38.209
G1 F1200 X56.789 Y55.092 E17.38444
G0 F6000 X56.789 Y55.658
G1 F1200 X39.341 Y38.209 E18.20516
G0 F6000 X38.775 Y38.209
G1 F1200 X56.789 Y56.224 E19.05251
G0 F6000 X56.789 Y56.789
G1 F1200 X38.209 Y38.209 E19.92646
G0 F6000 X38.209 Y38.775
G1 F1200 X56.224 Y56.789 E20.7738
G0 F6000 X55.658 Y56.789
G1 F1200 X38.209 Y39.341 E21.59453
G0 F6000 X38.209 Y39.906
G1 F1200 X55.092 Y56.789 E22.38865
G0 F6000 X54.527 Y56.789
G1 F1200 X38.209 Y40.472 E23.15618
G0 F6000 X38.209 Y41.038
G1 F1200 X53.961 Y56.789 E23.89708
G0 F6000 X53.395 Y56.789
G1 F1200 X38.209 Y41.604 E24.61136
G0 F6000 X38.209 Y42.169
G1 F1200 X52.83 Y56.789 E25.29906
G0 F6000 X52.264 Y56.789
G1 F1200 X38.209 Y42.735 E25.96014
G0 F6000 X38.209 Y43.301
G1 F1200 X51.698 Y56.789 E26.5946
G0 F6000 X51.133 Y56.789
G1 F1200 X38.209 Y43.866 E27.20248
G0 F6000 X38.209 Y44.432
G1 F1200 X50.567 Y56.789 E27.78374
G0 F6000 X50.001 Y56.789
G1 F1200 X38.209 Y44.998 E28.33838
G0 F6000 X38.209 Y45.563
G1 F1200 X49.435 Y56.789 E28.86642
G0 F6000 X48.87 Y56.789
G1 F1200 X38.209 Y46.129 E29.36785
G0 F6000 X38.209 Y46.695
G1 F1200 X48.304 Y56.789 E29.84267
G0 F6000 X47.738 Y56.789
G1 F1200 X38.209 Y47.26 E30.29088
G0 F6000 X38.209 Y47.826
G1 F1200 X47.173 Y56.789 E30.7125
G0 F6000 X46.607 Y56.789
G1 F1200 X38.209 Y48.392 E31.10749
G0 F6000 X38.209 Y48.957
G1 F1200 X46.041 Y56.789 E31.47588
G0 F6000 X45.476 Y56.789
G1 F1200 X38.209 Y49.523 E31.81768
G0 F6000 X38.209 Y50.089
G1 F1200 X44.91 Y56.789 E32.13285
G0 F6000 X44.344 Y56.789
G1 F1200 X38.209 Y50.655 E32.4214
G0 F6000 X38.209 Y51.22
G1 F1200 X43.779 Y56.789 E32.68337
G0 F6000 X43.213 Y56.789
G1 F1200 X38.209 Y51.786 E32.91872
G0 F6000 X38.209 Y52.352
G1 F1200 X42.647 Y56.789 E33.12744
G0 F6000 X42.082 Y56.789
G1 F1200 X38.209 Y52.917 E33.30959
G0 F6000 X38.209 Y53.483
G1 F1200 X41.516 Y56.789 E33.46512
G0 F6000 X40.95 Y56.789
G1 F1200 X38.209 Y54.049 E33.59403
G0 F6000 X38.209 Y54.614
G1 F1200 X40.384 Y56.789 E33.69633
G0 F6000 X39.819 Y56.789
G1 F1200 X38.209 Y55.18 E33.77204
G0 F6000 X38.209 Y55.746
G1 F1200 X39.253 Y56.789 E33.82112
G0 F6000 X38.687 Y56.789
G1 F1200 X38.209 Y56.311 E33.84361
G0 F6000 X38.25 Y56.311
;MESH:Custom Bed Level Test.3mf
G0 X38.16 Y56.311
G0 X38.232 Y56.768
G0 X57.136 Y57.136
G0 X58.215 Y57.136
G0 X107.864 Y106.785
G0 X107.864 Y107.864
G0 X126.768 Y108.232
G0 X126.95 Y126.95
;TYPE:WALL-INNER
G1 F1200 X108.05 Y126.95 E34.47222
G1 X108.05 Y108.05 E35.10084
G1 X126.95 Y108.05 E35.72945
G1 X126.95 Y126.95 E36.35807
G0 F6000 X127.35 Y127.35
;TYPE:WALL-OUTER
G1 F1200 X107.65 Y127.35 E37.0133
G1 X107.65 Y107.65 E37.66852
G1 X127.35 Y107.65 E38.32375
G1 X127.35 Y127.35 E38.97897
G0 F6000 X127.08 Y127.08
G0 X126.84 Y108.687
G0 X126.789 Y108.687
;TYPE:SKIN
G1 F1200 X126.311 Y108.209 E39.00145
G0 F6000 X125.746 Y108.209
G1 F1200 X126.789 Y109.253 E39.05054
G0 F6000 X126.789 Y109.819
G1 F1200 X125.18 Y108.209 E39.12624
G0 F6000 X124.614 Y108.209
G1 F1200 X126.789 Y110.385 E39.22857
G0 F6000 X126.789 Y110.95
G1 F1200 X124.049 Y108.209 E39.35748
G0 F6000 X123.483 Y108.209
G1 F1200 X126.789 Y111.516 E39.513
G0 F6000 X126.789 Y112.082
G1 F1200 X122.917 Y108.209 E39.69515
G0 F6000 X122.352 Y108.209
G1 F1200 X126.789 Y112.647 E39.90388
G0 F6000 X126.789 Y113.213
G1 F1200 X121.786 Y108.209 E40.13923
G0 F6000 X121.22 Y108.209
G1 F1200 X126.789 Y113.779 E40.4012
G0 F6000 X126.789 Y114.344
G1 F1200 X120.655 Y108.209 E40.68975
G0 F6000 X120.089 Y108.209
G1 F1200 X126.789 Y114.91 E41.00492
G0 F6000 X126.789 Y115.476
G1 F1200 X119.523 Y108.209 E41.34672
G0 F6000 X118.957 Y108.209
G1 F1200 X126.789 Y116.041 E41.71511
G0 F6000 X126.789 Y116.607
G1 F1200 X118.392 Y108.209 E42.1101
G0 F6000 X117.826 Y108.209
G1 F1200 X126.789 Y117.173 E42.53172
G0 F6000 X126.789 Y117.738
G1 F1200 X117.26 Y108.209 E42.97993
G0 F6000 X116.695 Y108.209
G1 F1200 X126.789 Y118.304 E43.45475
G0 F6000 X126.789 Y118.87
G1 F1200 X116.129 Y108.209 E43.95618
G0 F6000 X115.563 Y108.209
G1 F1200 X126.789 Y119.435 E44.48422
G0 F6000 X126.789 Y120.001
G1 F1200 X114.998 Y108.209 E45.03886
G0 F6000 X114.432 Y108.209
G1 F1200 X126.789 Y120.567 E45.62011
G0 F6000 X126.789 Y121.133
G1 F1200 X113.866 Y108.209 E46.228
G0 F6000 X113.301 Y108.209
G1 F1200 X126.789 Y121.698 E46.86245
G0 F6000 X126.789 Y122.264
G1 F1200 X112.735 Y108.209 E47.52353
G0 F6000 X112.169 Y108.209
G1 F1200 X126.789 Y122.83 E48.21124
G0 F6000 X126.789 Y123.395
G1 F1200 X111.604 Y108.209 E48.92552
G0 F6000 X111.038 Y108.209
G1 F1200 X126.789 Y123.961 E49.66642
G0 F6000 X126.789 Y124.527
G1 F1200 X110.472 Y108.209 E50.43395
G0 F6000 X109.907 Y108.209
G1 F1200 X126.789 Y125.092 E51.22805
G0 F6000 X126.789 Y125.658
G1 F1200 X109.341 Y108.209 E52.04877
G0 F6000 X108.775 Y108.209
G1 F1200 X126.789 Y126.224 E52.89612
G0 F6000 X126.789 Y126.789
G1 F1200 X108.209 Y108.209 E53.77006
G0 F6000 X108.209 Y108.775
G1 F1200 X126.224 Y126.789 E54.61741
G0 F6000 X125.658 Y126.789
G1 F1200 X108.209 Y109.341 E55.43813
G0 F6000 X108.209 Y109.907
G1 F1200 X125.092 Y126.789 E56.23223
G0 F6000 X124.527 Y126.789
G1 F1200 X108.209 Y110.472 E56.99976
G0 F6000 X108.209 Y111.038
G1 F1200 X123.961 Y126.789 E57.74066
G0 F6000 X123.395 Y126.789
G1 F1200 X108.209 Y111.604 E58.45494
G0 F6000 X108.209 Y112.169
G1 F1200 X122.83 Y126.789 E59.14265
G0 F6000 X122.264 Y126.789
G1 F1200 X108.209 Y112.735 E59.80373
G0 F6000 X108.209 Y113.301
G1 F1200 X121.698 Y126.789 E60.43818
G0 F6000 X121.133 Y126.789
G1 F1200 X108.209 Y113.866 E61.04607
G0 F6000 X108.209 Y114.432
G1 F1200 X120.567 Y126.789 E61.62732
G0 F6000 X120.001 Y126.789
G1 F1200 X108.209 Y114.998 E62.18196
G0 F6000 X108.209 Y115.563
G1 F1200 X119.435 Y126.789 E62.71
G0 F6000 X118.87 Y126.789
G1 F1200 X108.209 Y116.129 E63.21143
G0 F6000 X108.209 Y116.695
G1 F1200 X118.304 Y126.789 E63.68625
G0 F6000 X117.738 Y126.789
G1 F1200 X108.209 Y117.26 E64.13446
G0 F6000 X108.209 Y117.826
G1 F1200 X117.173 Y126.789 E64.55608
G0 F6000 X116.607 Y126.789
G1 F1200 X108.209 Y118.392 E64.95107
G0 F6000 X108.209 Y118.957
G1 F1200 X116.041 Y126.789 E65.31946
G0 F6000 X115.476 Y126.789
G1 F1200 X108.209 Y119.523 E65.66126
G0 F6000 X108.209 Y120.089
G1 F1200 X114.91 Y126.789 E65.97643
G0 F6000 X114.344 Y126.789
G1 F1200 X108.209 Y120.655 E66.26498
G0 F6000 X108.209 Y121.22
G1 F1200 X113.779 Y126.789 E66.52695
G0 F6000 X113.213 Y126.789
G1 F1200 X108.209 Y121.786 E66.7623
G0 F6000 X108.209 Y122.352
G1 F1200 X112.647 Y126.789 E66.97103
G0 F6000 X112.082 Y126.789
G1 F1200 X108.209 Y122.917 E67.15318
G0 F6000 X108.209 Y123.483
G1 F1200 X111.516 Y126.789 E67.3087
G0 F6000 X110.95 Y126.789
G1 F1200 X108.209 Y124.049 E67.43761
G0 F6000 X108.209 Y124.614
G1 F1200 X110.385 Y126.789 E67.53994
G0 F6000 X109.819 Y126.789
G1 F1200 X108.209 Y125.18 E67.61564
G0 F6000 X108.209 Y125.746
G1 F1200 X109.253 Y126.789 E67.66473
G0 F6000 X108.687 Y126.789
G1 F1200 X108.209 Y126.311 E67.68721
G0 F6000 X108.25 Y126.311
;MESH:Custom Bed Level Test.3mf(1)
G0 X108.16 Y126.311
G0 X108.232 Y126.768
G0 X113.918 Y127.13
G0 X113.918 Y128.215
G0 X113.887 Y203.489
G0 X113.918 Y204.552
G0 X113.918 Y204.752
;TYPE:WALL-INNER
G1 F1200 X121.082 Y204.752 E67.92549
G1 X128.273 Y204.958 E68.16476
G1 X135.441 Y205.369 E68.40356
G1 X142.595 Y205.985 E68.64238
G3 X191.783 Y215.986 I-25.949 J253.585 E70.31460 F1200
G2 X215.976 Y191.748 I5.719 J-18.485 E71.71242
G2 X213.950 Y184.871 I-693.709 J200.633 E71.95087
G2 X212.114 Y177.908 I-1242.954 J324.018 E72.19038
G1 X210.488 Y170.935 E72.42852
G1 X209.058 Y163.898 E72.66736
G1 X207.83 Y156.825 E72.90613
G1 X206.806 Y149.718 E73.14495
G2 X205.986 Y142.595 I-8932.674 J1024.721 E73.38342
G1 X205.368 Y135.439 E73.62232
G1 X204.958 Y128.273 E73.86105
G1 X204.752 Y121.099 E74.09976
G1 X204.752 Y113.918 E74.3386
G1 X204.958 Y106.727 E74.57787
G1 X205.368 Y99.571 E74.81627
G1 X205.985 Y92.405 E75.05549
G1 X206.728 Y85.956 E75.27141
G1 X206.806 Y85.279 E75.29407
G1 X207.83 Y78.175 E75.5328
G1 X209.058 Y71.102 E75.77156
G1 X210.488 Y64.065 E76.0104
G1 X212.12 Y57.068 E76.24937
G1 X213.95 Y50.129 E76.48805
G1 X215.978 Y43.242 E76.72684
G2 X191.759 Y19.021 I-18.477 J-5.744 E78.12516
G1 X184.877 Y21.048 E78.36378
G1 X177.932 Y22.88 E78.60267
G1 X170.939 Y24.511 E78.8415
G1 X163.904 Y25.941 E79.08027
G1 X156.85 Y27.166 E79.3184
G3 X92.406 Y29.015 I-39.431 J-250.342 E81.46858
G3 X43.217 Y19.014 I25.939 J-253.545 E83.14082
G2 X19.021 Y43.241 I-5.719 J18.484 E84.53827
G1 X21.047 Y50.118 E84.77672
G1 X22.877 Y57.057 E85.0154
G1 X24.509 Y64.055 E85.2544
G1 X24.512 Y64.065 E85.25475
G1 X25.936 Y71.068 E85.49244
G1 X25.94 Y71.095 E85.49334
G1 X27.165 Y78.146 E85.73138
G2 X28.194 Y85.279 I262.511 J-34.229 E85.97108
G2 X29.014 Y92.409 I4282.835 J-488.944 E86.20978
G1 X29.632 Y99.561 E86.44855
G1 X30.042 Y106.721 E86.68708
G1 X30.042 Y106.732 E86.68745
G1 X30.248 Y113.901 E86.92599
G1 X30.248 Y121.082 E87.16483
G1 X30.042 Y128.273 E87.4041
G1 X29.632 Y135.429 E87.6425
G1 X29.015 Y142.595 E87.88172
G3 X19.014 Y191.783 I-253.585 J-25.949 E89.55394
G2 X43.247 Y215.977 I18.485 J5.719 E90.95160
G2 X50.129 Y213.950 I-198.159 J-685.480 E91.19021
G1 X57.068 Y212.12 E91.4289
G1 X64.061 Y210.489 E91.66773
G1 X71.096 Y209.059 E91.9065
G1 X78.15 Y207.834 E92.14463
G3 X113.918 Y204.752 I39.831 J253.167 E93.33967
G0 F6000 X113.907 Y204.352
;TYPE:WALL-OUTER
G1 F1200 X121.093 Y204.352 E93.57867
G1 X128.284 Y204.558 E93.81794
G1 X135.475 Y204.97 E94.05751
G1 X142.629 Y205.587 E94.29634
G1 X149.775 Y206.41 E94.53558
G1 X156.907 Y207.438 E94.77525
G1 X163.984 Y208.667 E95.01415
G1 X171.03 Y210.099 E95.25329
G1 X178.023 Y211.73 E95.49212
G1 X184.984 Y213.566 E95.73157
G1 X191.89 Y215.601 E95.97103
G2 X215.601 Y191.889 I5.610 J-18.101 E97.33954 F1200
G1 X213.566 Y184.984 E97.57896
G1 X211.727 Y178.01 E97.81885
G1 X210.098 Y171.026 E98.05737
G1 X208.666 Y163.978 E98.29658
G1 X207.436 Y156.893 E98.53575
G1 X206.41 Y149.775 E98.77495
G1 X205.587 Y142.629 E99.01419
G1 X204.97 Y135.473 E99.25309
G1 X204.558 Y128.284 E99.49259
G1 X204.352 Y121.099 E99.73166
G1 X204.352 Y113.907 E99.97086
G1 X204.558 Y106.716 E100.21014
G1 X204.969 Y99.537 E100.4493
G1 X205.587 Y92.371 E100.68853
G1 X206.41 Y85.222 E100.92788
G1 X207.436 Y78.107 E101.16697
G1 X208.666 Y71.022 E101.40614
G1 X210.098 Y63.974 E101.64535
G1 X211.733 Y56.966 E101.8847
G1 X213.566 Y50.016 E102.12376
G1 X215.601 Y43.11 E102.36322
G2 X191.890 Y19.399 I-18.101 J-5.610 E103.73170
G1 X184.987 Y21.433 E103.97105
G1 X178.023 Y23.27 E104.2106
G1 X171.03 Y24.901 E104.44943
G1 X163.984 Y26.333 E104.68857
G1 X156.907 Y27.562 E104.92748
G1 X149.775 Y28.59 E105.16714
G1 X142.628 Y29.413 E105.40642
G1 X135.473 Y30.03 E105.64528
G1 X128.284 Y30.442 E105.88478
G1 X121.093 Y30.648 E106.12405
G1 X113.907 Y30.648 E106.36306
G1 X106.716 Y30.442 E106.60233
G1 X99.525 Y30.03 E106.8419
G1 X92.372 Y29.413 E107.08069
G1 X85.225 Y28.59 E107.31997
G1 X78.093 Y27.562 E107.55963
G1 X71.016 Y26.333 E107.79854
G1 X63.97 Y24.901 E108.03768
G1 X56.977 Y23.27 E108.27651
G1 X50.013 Y21.433 E108.51606
G1 X43.11 Y19.399 E108.75541
G2 X19.399 Y43.110 I-5.610 J18.101 E110.12389
G1 X21.434 Y50.016 E110.36335
G1 X23.267 Y56.966 E110.60242
G1 X24.902 Y63.974 E110.84176
G1 X26.33 Y71 E111.08023
G1 X27.561 Y78.089 E111.31953
G1 X28.59 Y85.222 E111.55924
G1 X29.412 Y92.359 E111.79818
G1 X30.03 Y99.527 E112.03748
G1 X30.442 Y106.71 E112.27678
G1 X30.648 Y113.901 E112.51605
G1 X30.648 Y121.093 E112.75525
G1 X30.442 Y128.284 E112.99453
G1 X30.031 Y135.463 E113.23369
G1 X29.413 Y142.629 E113.47292
G1 X28.59 Y149.775 E113.71217
G1 X27.564 Y156.893 E113.95136
G1 X26.334 Y163.978 E114.19053
G1 X24.902 Y171.026 E114.42974
G1 X23.273 Y178.01 E114.66826
G1 X21.434 Y184.984 E114.90815
G1 X19.399 Y191.89 E115.14761
G2 X43.110 Y215.601 I18.101 J5.610 E116.51609
G1 X50.016 Y213.566 E116.75555
G1 X56.977 Y211.73 E116.99499
G1 X63.97 Y210.099 E117.23382
G1 X71.016 Y208.667 E117.47296
G1 X78.093 Y207.438 E117.71186
G1 X85.225 Y206.41 E117.95153
G1 X92.371 Y205.587 E118.19078
G1 X99.527 Y204.97 E118.42967
G1 X106.716 Y204.558 E118.66917
G1 X113.907 Y204.352 E118.90844
G0 F6000 X113.913 Y204.791
G0 X121.089 Y204.852
;TYPE:WALL-INNER
G1 F1200 X113.911 Y204.852 E118.96845
G1 X106.737 Y205.057 E119.02765
G1 X99.571 Y205.468 E119.08726
G1 X92.42 Y206.085 E119.14682
G1 X85.965 Y206.828 E119.20051
G1 X85.965 Y206.807 E119.20121
G2 X78.168 Y207.932 I911.191 J6342.744 E119.26531 F1200
G1 X71.113 Y209.157 E119.3244
G1 X64.079 Y210.588 E119.38398
G1 X57.088 Y212.219 E119.44417
G1 X50.148 Y214.048 E119.50414
G1 X43.276 Y216.072 E119.56326
G3 X18.926 Y191.730 I-5.776 J-18.572 E119.91316
G1 X20.952 Y184.852 E119.97293
G1 X22.781 Y177.912 E120.03319
G3 X24.412 Y170.921 I331.439 J73.639 E120.09329
G1 X25.843 Y163.887 E120.15299
G1 X27.071 Y156.814 E120.21236
